X: 17
T:Bourre Carre
M:2/4
L:1/16
C:AABBAABBCCDDCCDD
S:French Creek
K:D
A4^G2A2|B2A2F4|F2GF E2FE|D2E2 F2G2|A4^G2A2|B2A2F4|F2GF E2FE|D8:||!
E3F G2A2|F2GF E4-|E2FG F2E2|D2E2 F2D2|E3F G2A2|F2GF E4|F2GF E2FE|D8:||!
F4A4|d6f2|e3d c2B2|ABAG F2E2|F4A4|d6f2|e3d c2B2|A8:||!
F2A2A4|d2B2B4|F2A2 A2GF|E8|F2A2A4|d2B2B4|A2d2 c2ded8:||
